X:59
T: ICH HOERT EIN SICHLEIN
N: E0678
O: Europa, Mitteleuropa, Deutschland
R: Liebes - Lied, Leid, Klage
M: 4/4
L: 1/4
K: F
F | FAGF | c2c
F | ccBA | G2z
c | BAGF | c2A
F | GABG | F2z
c | BAGF | c2A
F | GABG | F2z

